src/icons/android-briefcase.svg

<svg xmlns="http://www.w3.org/2000/svg" width="512" height="512" viewBox="0 0 512 512">
    <path d="M352 137.5V97.9c0-22.4-18-40.4-40.4-40.4H200.4c-22.4 0-40.4 18-40.4 40.4v39.6H48v263.6c0 22.4 18 40.4 40.4 40.4h335.2c22.4 0 40.4-18 40.4-40.4V137.5H352zm-40 0H200v-40h112v40z"/>
</svg>

<?xml version="1.0" encoding="UTF-8"?>
<svg width="512px" height="512px" viewBox="0 0 512 512" version="1.1" xmlns="http://www.w3.org/2000/svg" xmlns:xlink="http://www.w3.org/1999/xlink">
    <!-- Generator: Sketch 62 (91390) - https://sketch.com -->
    <title>android-briefcase</title>
    <desc>Created with Sketch.</desc>
    <g id="android-briefcase" stroke="none" stroke-width="1" fill="none" fill-rule="evenodd">
        <path d="M352,137.5 L352,97.9 C352,75.5 334,57.5 311.6,57.5 L200.4,57.5 C178,57.5 160,75.5 160,97.9 L160,137.5 L48,137.5 L48,401.1 C48,423.5 66,441.5 88.4,441.5 L423.6,441.5 C446,441.5 464,423.5 464,401.1 L464,137.5 L352,137.5 Z M312,137.5 L200,137.5 L200,97.5 L312,97.5 L312,137.5 Z" id="Shape" fill="#000000" fill-rule="nonzero"></path>
    </g>
</svg>
